Newaita-dark/apps/32/youtube-dl.svg

<?xml version="1.0" encoding="UTF-8"?>
<svg xmlns="http://www.w3.org/2000/svg" xmlns:xlink="http://www.w3.org/1999/xlink" width="32pt" height="32pt" viewBox="0 0 32 32" version="1.1">
<defs>
<linearGradient id="linear0" gradientUnits="userSpaceOnUse" x1="254" y1="233.5" x2="254" y2="254.666672" gradientTransform="matrix(0.062506,0,0,0.062506,-0.00000381506,10.131178)">
<stop offset="0" style="stop-color:rgb(0%,0%,0%);stop-opacity:0.27451;"/>
<stop offset="1" style="stop-color:rgb(0%,0%,0%);stop-opacity:0;"/>
</linearGradient>
<radialGradient id="radial0" gradientUnits="userSpaceOnUse" cx="450.908936" cy="189.579361" fx="450.908936" fy="189.579361" r="21.166656" gradientTransform="matrix(0.00000017417,-0.0781325,-0.140638,-0.000000101539,53.12293,60.287726)">
<stop offset="0" style="stop-color:rgb(0%,0%,0%);stop-opacity:0.313725;"/>
<stop offset="0.222222" style="stop-color:rgb(0%,0%,0%);stop-opacity:0.27451;"/>
<stop offset="1" style="stop-color:rgb(0%,0%,0%);stop-opacity:0;"/>
</radialGradient>
<radialGradient id="radial1" gradientUnits="userSpaceOnUse" cx="450.908936" cy="189.579361" fx="450.908936" fy="189.579361" r="21.166656" gradientTransform="matrix(-0.00000017417,0.0781325,0.140638,0.000000101539,-21.20452,-10.835086)">
<stop offset="0" style="stop-color:rgb(0%,0%,0%);stop-opacity:0.313725;"/>
<stop offset="0.222222" style="stop-color:rgb(0%,0%,0%);stop-opacity:0.27451;"/>
<stop offset="1" style="stop-color:rgb(0%,0%,0%);stop-opacity:0;"/>
</radialGradient>
<radialGradient id="radial2" gradientUnits="userSpaceOnUse" cx="450.908936" cy="189.579361" fx="450.908936" fy="189.579361" r="21.166656" gradientTransform="matrix(-0.00000017417,-0.0781325,0.140638,-0.000000101539,-21.20452,60.287726)">
<stop offset="0" style="stop-color:rgb(0%,0%,0%);stop-opacity:0.313725;"/>
<stop offset="0.222222" style="stop-color:rgb(0%,0%,0%);stop-opacity:0.27451;"/>
<stop offset="1" style="stop-color:rgb(0%,0%,0%);stop-opacity:0;"/>
</radialGradient>
<radialGradient id="radial3" gradientUnits="userSpaceOnUse" cx="450.908936" cy="189.579361" fx="450.908936" fy="189.579361" r="21.166656" gradientTransform="matrix(0.00000017417,0.0781325,-0.140638,0.000000101539,53.122929,-10.835086)">
<stop offset="0" style="stop-color:rgb(0%,0%,0%);stop-opacity:0.313725;"/>
<stop offset="0.222222" style="stop-color:rgb(0%,0%,0%);stop-opacity:0.27451;"/>
<stop offset="1" style="stop-color:rgb(0%,0%,0%);stop-opacity:0;"/>
</radialGradient>
<linearGradient id="linear1" gradientUnits="userSpaceOnUse" x1="254" y1="191.166672" x2="254" y2="-126.333344" gradientTransform="matrix(0.062506,0,0,0.062506,0,13.438783)">
<stop offset="0" style="stop-color:rgb(95.686275%,26.27451%,21.176471%);stop-opacity:1;"/>
<stop offset="1" style="stop-color:rgb(93.72549%,32.54902%,31.372549%);stop-opacity:1;"/>
</linearGradient>
<linearGradient id="linear2" gradientUnits="userSpaceOnUse" x1="960" y1="1155.118164" x2="960" y2="335.117218" gradientTransform="matrix(0.016538,0,0,0.016538,0.000000208353,2.965953)">
<stop offset="0" style="stop-color:rgb(87.843137%,87.843137%,87.843137%);stop-opacity:1;"/>
<stop offset="1" style="stop-color:rgb(93.333333%,93.333333%,93.333333%);stop-opacity:1;"/>
</linearGradient>
</defs>
<g id="surface1">
<path style=" stroke:none;fill-rule:nonzero;fill:url(#linear0);" d="M 5.125 24.726562 L 26.792969 24.726562 L 26.792969 26.050781 L 5.125 26.050781 Z M 5.125 24.726562 "/>
<path style=" stroke:none;fill-rule:nonzero;fill:url(#radial0);" d="M 26.792969 24.726562 L 29.4375 24.726562 L 29.4375 23.402344 L 26.792969 23.402344 Z M 26.792969 24.726562 "/>
<path style=" stroke:none;fill-rule:nonzero;fill:url(#radial1);" d="M 5.125 24.726562 L 2.480469 24.726562 L 2.480469 26.050781 L 5.125 26.050781 Z M 5.125 24.726562 "/>
<path style=" stroke:none;fill-rule:nonzero;fill:url(#radial2);" d="M 5.125 24.726562 L 2.480469 24.726562 L 2.480469 23.402344 L 5.125 23.402344 Z M 5.125 24.726562 "/>
<path style=" stroke:none;fill-rule:nonzero;fill:url(#radial3);" d="M 26.792969 24.726562 L 29.4375 24.726562 L 29.4375 26.050781 L 26.792969 26.050781 Z M 26.792969 24.726562 "/>
<path style=" stroke:none;fill-rule:nonzero;fill:url(#linear1);" d="M 29.105469 8.851562 C 28.789062 7.664062 27.851562 6.730469 26.667969 6.410156 C 24.5 5.816406 15.839844 5.816406 15.839844 5.816406 C 15.839844 5.816406 7.175781 5.816406 5.007812 6.386719 C 3.847656 6.707031 2.890625 7.664062 2.570312 8.851562 C 2 11.015625 2 15.507812 2 15.507812 C 2 15.507812 2 20.019531 2.570312 22.164062 C 2.890625 23.347656 3.824219 24.285156 5.007812 24.601562 C 7.199219 25.195312 15.839844 25.195312 15.839844 25.195312 C 15.839844 25.195312 24.5 25.195312 26.667969 24.625 C 27.851562 24.308594 28.789062 23.371094 29.105469 22.1875 C 29.675781 20.019531 29.675781 15.53125 29.675781 15.53125 C 29.675781 15.53125 29.699219 11.015625 29.105469 8.851562 Z M 29.105469 8.851562 "/>
<path style=" stroke:none;fill-rule:nonzero;fill:rgb(100%,100%,100%);fill-opacity:0.392157;" d="M 15.839844 5.816406 C 15.839844 5.816406 7.175781 5.816406 5.007812 6.386719 C 3.847656 6.707031 2.890625 7.664062 2.570312 8.851562 C 2 11.015625 2 15.507812 2 15.507812 C 2 15.507812 2 15.589844 2 15.734375 C 2.011719 14.804688 2.074219 11.179688 2.570312 9.300781 C 2.890625 8.117188 3.847656 7.160156 5.007812 6.839844 C 7.175781 6.269531 15.839844 6.269531 15.839844 6.269531 C 15.839844 6.269531 24.5 6.269531 26.667969 6.863281 C 27.851562 7.183594 28.789062 8.117188 29.105469 9.300781 C 29.609375 11.140625 29.667969 14.65625 29.675781 15.683594 C 29.675781 15.605469 29.675781 15.53125 29.675781 15.53125 C 29.675781 15.53125 29.699219 11.015625 29.105469 8.851562 C 28.789062 7.664062 27.851562 6.730469 26.667969 6.410156 C 24.5 5.816406 15.839844 5.816406 15.839844 5.816406 Z M 15.839844 5.816406 "/>
<path style=" stroke:none;fill-rule:nonzero;fill:rgb(0%,0%,0%);fill-opacity:0.235294;" d="M 15.839844 25.222656 C 15.839844 25.222656 7.175781 25.222656 5.007812 24.652344 C 3.847656 24.332031 2.890625 23.375 2.570312 22.191406 C 2 20.023438 2 15.535156 2 15.535156 C 2 15.535156 2 15.449219 2 15.308594 C 2.011719 16.234375 2.074219 19.859375 2.570312 21.738281 C 2.890625 22.921875 3.847656 23.882812 5.007812 24.199219 C 7.175781 24.769531 15.839844 24.769531 15.839844 24.769531 C 15.839844 24.769531 24.5 24.769531 26.667969 24.175781 C 27.851562 23.859375 28.789062 22.921875 29.105469 21.738281 C 29.609375 19.902344 29.667969 16.382812 29.675781 15.355469 C 29.675781 15.4375 29.675781 15.511719 29.675781 15.511719 C 29.675781 15.511719 29.699219 20.023438 29.105469 22.191406 C 28.789062 23.375 27.851562 24.308594 26.667969 24.628906 C 24.5 25.222656 15.839844 25.222656 15.839844 25.222656 Z M 15.839844 25.222656 "/>
<path style=" stroke:none;fill-rule:nonzero;fill:rgb(12.941177%,12.941177%,12.941177%);fill-opacity:1;" d="M 15.839844 5.703125 C 15.839844 5.703125 13.671875 5.703125 11.234375 5.773438 C 8.792969 5.847656 6.101562 5.984375 4.980469 6.277344 C 3.777344 6.609375 2.789062 7.59375 2.460938 8.820312 C 2.171875 9.921875 2.027344 11.589844 1.957031 12.984375 C 1.886719 14.382812 1.886719 15.507812 1.886719 15.507812 C 1.886719 15.507812 1.886719 16.636719 1.957031 18.039062 C 2.027344 19.4375 2.171875 21.101562 2.460938 22.191406 L 2.460938 22.195312 C 2.789062 23.417969 3.753906 24.382812 4.980469 24.714844 C 6.109375 25.019531 8.804688 25.160156 11.242188 25.234375 C 13.675781 25.308594 15.839844 25.308594 15.839844 25.308594 C 15.839844 25.308594 18.003906 25.308594 20.445312 25.238281 C 22.882812 25.167969 25.578125 25.03125 26.695312 24.734375 C 27.921875 24.40625 28.886719 23.441406 29.21875 22.214844 C 29.507812 21.113281 29.648438 19.449219 29.71875 18.050781 C 29.789062 16.65625 29.789062 15.53125 29.789062 15.53125 C 29.789062 15.527344 29.796875 14.398438 29.726562 12.996094 C 29.660156 11.59375 29.519531 9.921875 29.21875 8.820312 C 28.886719 7.59375 27.921875 6.628906 26.699219 6.300781 C 25.578125 5.992188 22.882812 5.851562 20.445312 5.777344 C 18.003906 5.703125 15.839844 5.703125 15.839844 5.703125 Z M 15.839844 5.933594 C 15.839844 5.933594 18.003906 5.933594 20.4375 6.003906 C 22.871094 6.078125 25.59375 6.234375 26.636719 6.519531 C 27.785156 6.828125 28.6875 7.734375 28.996094 8.878906 C 29.289062 9.941406 29.433594 11.613281 29.5 13.007812 C 29.570312 14.402344 29.5625 15.527344 29.5625 15.527344 L 29.5625 15.53125 C 29.5625 15.53125 29.5625 16.648438 29.492188 18.039062 C 29.421875 19.429688 29.277344 21.09375 28.996094 22.15625 C 28.6875 23.304688 27.785156 24.207031 26.636719 24.515625 C 25.59375 24.792969 22.871094 24.941406 20.4375 25.011719 C 18.003906 25.082031 15.839844 25.082031 15.839844 25.082031 C 15.839844 25.082031 13.679688 25.082031 11.25 25.007812 C 8.816406 24.933594 6.097656 24.78125 5.039062 24.492188 C 3.894531 24.183594 2.988281 23.28125 2.679688 22.132812 C 2.402344 21.082031 2.257812 19.417969 2.183594 18.027344 C 2.113281 16.632812 2.113281 15.507812 2.113281 15.507812 C 2.113281 15.507812 2.113281 14.386719 2.183594 12.996094 C 2.257812 11.605469 2.398438 9.945312 2.679688 8.878906 C 2.988281 7.734375 3.917969 6.804688 5.039062 6.496094 C 6.085938 6.222656 8.804688 6.074219 11.238281 6.003906 C 13.675781 5.933594 15.839844 5.933594 15.839844 5.933594 Z M 15.839844 5.933594 "/>
<path style=" stroke:none;fill-rule:nonzero;fill:url(#linear2);" d="M 13.726562 8.519531 C 13.453125 8.519531 13.230469 8.734375 13.230469 9 L 13.230469 16.445312 L 11.246094 16.445312 L 15.214844 21.738281 C 15.792969 22.484375 15.960938 22.484375 16.539062 21.738281 L 20.507812 16.445312 L 18.523438 16.445312 L 18.523438 9 C 18.523438 8.734375 18.300781 8.519531 18.027344 8.519531 Z M 13.726562 8.519531 "/>
<path style=" stroke:none;fill-rule:nonzero;fill:rgb(95.294118%,95.294118%,95.294118%);fill-opacity:1;" d="M 13.726562 8.519531 C 13.453125 8.519531 13.230469 8.734375 13.230469 9 L 13.230469 9.261719 C 13.230469 8.996094 13.453125 8.78125 13.726562 8.78125 L 18.027344 8.78125 C 18.300781 8.78125 18.523438 8.996094 18.523438 9.261719 L 18.523438 9 C 18.523438 8.734375 18.300781 8.519531 18.027344 8.519531 Z M 11.246094 16.445312 L 11.441406 16.707031 L 13.230469 16.707031 L 13.230469 16.445312 Z M 18.523438 16.445312 L 18.523438 16.707031 L 20.3125 16.707031 L 20.507812 16.445312 Z M 18.523438 16.445312 "/>
<path style=" stroke:none;fill-rule:nonzero;fill:rgb(0%,0%,0%);fill-opacity:0.235294;" d="M 11.246094 16.445312 L 15.214844 21.738281 C 15.792969 22.484375 15.960938 22.484375 16.539062 21.738281 L 20.507812 16.445312 L 20.332031 16.445312 L 16.539062 21.503906 C 15.960938 22.25 15.792969 22.25 15.214844 21.503906 L 11.421875 16.445312 Z M 11.246094 16.445312 "/>
<path style="fill:none;stroke-width:3;stroke-linecap:round;stroke-linejoin:miter;stroke:rgb(12.941177%,12.941177%,12.941177%);stroke-opacity:1;stroke-miterlimit:4;" d="M 219.604029 -78.700516 C 215.229447 -78.700516 211.667287 -75.263344 211.667287 -71.01375 L 211.667287 48.099875 L 179.920318 48.099875 L 243.414255 132.779289 C 252.663372 144.715649 255.350615 144.715649 264.599732 132.779289 L 328.093669 48.099875 L 296.3467 48.099875 L 296.3467 -71.01375 C 296.3467 -75.263344 292.78454 -78.700516 288.409958 -78.700516 Z M 219.604029 -78.700516 " transform="matrix(0.062506,0,0,0.062506,0,13.438783)"/>
</g>
</svg>

<svg xmlns="http://www.w3.org/2000/svg" width="32pt" height="32pt" viewBox="0 0 32 32"><defs><linearGradient id="a" gradientUnits="userSpaceOnUse" x1="254" y1="233.5" x2="254" y2="254.667" gradientTransform="matrix(.0625 0 0 .0625 0 10.131)"><stop offset="0" stop-opacity=".275"/><stop offset="1" stop-opacity="0"/></linearGradient><radialGradient id="b" gradientUnits="userSpaceOnUse" cx="450.909" cy="189.579" fx="450.909" fy="189.579" r="21.167" gradientTransform="matrix(0 -.07813 -.14064 0 53.123 60.288)"><stop offset="0" stop-opacity=".314"/><stop offset=".222" stop-opacity=".275"/><stop offset="1" stop-opacity="0"/></radialGradient><radialGradient id="c" gradientUnits="userSpaceOnUse" cx="450.909" cy="189.579" fx="450.909" fy="189.579" r="21.167" gradientTransform="matrix(0 .07813 .14064 0 -21.205 -10.835)"><stop offset="0" stop-opacity=".314"/><stop offset=".222" stop-opacity=".275"/><stop offset="1" stop-opacity="0"/></radialGradient><radialGradient id="d" gradientUnits="userSpaceOnUse" cx="450.909" cy="189.579" fx="450.909" fy="189.579" r="21.167" gradientTransform="matrix(0 -.07813 .14064 0 -21.205 60.288)"><stop offset="0" stop-opacity=".314"/><stop offset=".222" stop-opacity=".275"/><stop offset="1" stop-opacity="0"/></radialGradient><radialGradient id="e" gradientUnits="userSpaceOnUse" cx="450.909" cy="189.579" fx="450.909" fy="189.579" r="21.167" gradientTransform="matrix(0 .07813 -.14064 0 53.123 -10.835)"><stop offset="0" stop-opacity=".314"/><stop offset=".222" stop-opacity=".275"/><stop offset="1" stop-opacity="0"/></radialGradient><linearGradient id="f" gradientUnits="userSpaceOnUse" x1="254" y1="191.167" x2="254" y2="-126.333" gradientTransform="matrix(.0625 0 0 .0625 0 13.439)"><stop offset="0" stop-color="#f44336"/><stop offset="1" stop-color="#ef5350"/></linearGradient><linearGradient id="g" gradientUnits="userSpaceOnUse" x1="960" y1="1155.118" x2="960" y2="335.117" gradientTransform="matrix(.01654 0 0 .01654 0 2.966)"><stop offset="0" stop-color="#e0e0e0"/><stop offset="1" stop-color="#eee"/></linearGradient></defs><path d="M5.125 24.727h21.668v1.324H5.125zm0 0" fill="url(#a)"/><path d="M26.793 24.727h2.645v-1.325h-2.645zm0 0" fill="url(#b)"/><path d="M5.125 24.727H2.48v1.324h2.645zm0 0" fill="url(#c)"/><path d="M5.125 24.727H2.48v-1.325h2.645zm0 0" fill="url(#d)"/><path d="M26.793 24.727h2.645v1.324h-2.645zm0 0" fill="url(#e)"/><path d="M29.105 8.852a3.465 3.465 0 0 0-2.437-2.442C24.5 5.816 15.84 5.816 15.84 5.816s-8.664 0-10.832.57A3.545 3.545 0 0 0 2.57 8.853C2 11.016 2 15.508 2 15.508s0 4.512.57 6.656a3.466 3.466 0 0 0 2.438 2.438c2.191.593 10.832.593 10.832.593s8.66 0 10.828-.57a3.46 3.46 0 0 0 2.437-2.438c.57-2.167.57-6.656.57-6.656s.024-4.515-.57-6.68zm0 0" fill="url(#f)"/><path d="M15.84 5.816s-8.664 0-10.832.57A3.545 3.545 0 0 0 2.57 8.853C2 11.016 2 15.508 2 15.508v.226c.012-.93.074-4.554.57-6.433A3.547 3.547 0 0 1 5.008 6.84c2.168-.57 10.832-.57 10.832-.57s8.66 0 10.828.593a3.466 3.466 0 0 1 2.437 2.438c.504 1.84.563 5.355.57 6.383v-.153s.024-4.515-.57-6.68a3.465 3.465 0 0 0-2.437-2.44C24.5 5.815 15.84 5.815 15.84 5.815zm0 0" fill="#fff" fill-opacity=".392"/><path d="M15.84 25.223s-8.664 0-10.832-.57A3.547 3.547 0 0 1 2.57 22.19C2 20.023 2 15.535 2 15.535v-.226c.012.925.074 4.55.57 6.43.32 1.183 1.278 2.144 2.438 2.46 2.168.57 10.832.57 10.832.57s8.66 0 10.828-.593a3.46 3.46 0 0 0 2.437-2.438c.504-1.836.563-5.355.57-6.383v.157s.024 4.511-.57 6.68a3.466 3.466 0 0 1-2.437 2.437c-2.168.594-10.828.594-10.828.594zm0 0" fill-opacity=".235"/><path d="M15.84 5.703s-2.168 0-4.606.07c-2.441.075-5.132.211-6.254.504A3.649 3.649 0 0 0 2.46 8.82c-.288 1.102-.433 2.77-.503 4.164-.07 1.399-.07 2.524-.07 2.524s0 1.129.07 2.531c.07 1.398.215 3.063.504 4.152v.004a3.583 3.583 0 0 0 2.52 2.52c1.128.305 3.824.445 6.261.52 2.434.074 4.598.074 4.598.074s2.164 0 4.605-.07c2.438-.071 5.133-.208 6.25-.505a3.58 3.58 0 0 0 2.524-2.52c.289-1.1.43-2.765.5-4.163.07-1.395.07-2.52.07-2.52 0-.004.008-1.133-.062-2.535-.067-1.402-.207-3.074-.508-4.176a3.583 3.583 0 0 0-2.52-2.52c-1.12-.308-3.816-.448-6.254-.523-2.441-.074-4.605-.074-4.605-.074zm0 .23s2.164 0 4.598.07c2.433.075 5.156.231 6.199.517a3.354 3.354 0 0 1 2.36 2.359c.292 1.062.437 2.734.503 4.129.07 1.394.063 2.52.063 2.52v.003s0 1.117-.07 2.508c-.071 1.39-.216 3.055-.497 4.117a3.347 3.347 0 0 1-2.36 2.36c-1.042.277-3.765.425-6.198.496-2.434.07-4.598.07-4.598.07s-2.16 0-4.59-.074c-2.434-.074-5.152-.227-6.21-.516a3.354 3.354 0 0 1-2.36-2.36c-.278-1.05-.422-2.714-.496-4.105-.07-1.394-.07-2.52-.07-2.52s0-1.12.07-2.51c.074-1.392.214-3.052.496-4.118a3.434 3.434 0 0 1 2.36-2.383c1.046-.273 3.765-.422 6.198-.492 2.438-.07 4.602-.07 4.602-.07zm0 0" fill="#212121"/><path d="M13.727 8.52a.489.489 0 0 0-.497.48v7.445h-1.984l3.969 5.293c.578.746.746.746 1.324 0l3.969-5.293h-1.985V9a.489.489 0 0 0-.496-.48zm0 0" fill="url(#g)"/><path d="M13.727 8.52a.489.489 0 0 0-.497.48v.262c0-.266.223-.48.497-.48h4.3c.274 0 .496.214.496.48V9a.489.489 0 0 0-.496-.48zm-2.48 7.925l.194.262h1.79v-.262zm7.276 0v.262h1.79l.195-.262zm0 0" fill="#f3f3f3"/><path d="M11.246 16.445l3.969 5.293c.578.746.746.746 1.324 0l3.969-5.293h-.176l-3.793 5.059c-.578.746-.746.746-1.324 0l-3.793-5.059zm0 0" fill-opacity=".235"/><path d="M13.727 8.52a.489.489 0 0 0-.497.48v7.445h-1.984l3.969 5.293c.578.746.746.746 1.324 0l3.969-5.293h-1.985V9a.489.489 0 0 0-.496-.48zm0 0" fill="none" stroke-width=".18752999999999997" stroke-linecap="round" stroke="#212121"/></svg>
